!!!CDT:
!!!PTL: Li diversi scherzi a una, a due, a tre et quattro voci. Libro quarto
!!!PPP: Rome
!!!PPR: Giovanni Battista Robletti
!!!PDT: 1615
!!!RISM: C 2219
!!!rime:
!!!AGN: Madrigal
!!!SCT: Tsg12090a
!!!SCA: Tsg12090a
!!!voices:
!!!COM: Cifra, Antonio
!!!OTL: Lei nel partir, lei nel tornar del sole
**kern	**kern	**text	**kern	**text
*part3	*part2	*part2	*part1	*part1
*staff3	*staff2	*staff2	*staff1	*staff1
*I"Basso continuo	*I"Canto II	*	*I"Canto I	*
*I'Bc	*I'C II	*	*I'C I	*
*oclefF4	*oclefC1	*	*oclefC1	*
*clefF4	*clefG2	*	*clefG2	*
*k[b-]	*k[b-]	*	*k[b-]	*
*d:	*d:	*	*d:	*
*omet(C)	*omet(C)	*	*omet(C)	*
*M4/4	*M4/4	*	*M4/4	*
=1	=1	=1	=1	=1
!!LO:TX:a:t=Aria del Gazzella, a 2. Soprani. Prima stanza.
2G	1r	.	2.g	Lei
[2G	.	.	.	.
.	.	.	8f	nel
.	.	.	8e	par-
=2	=2	=2	=2	=2
4G]	2r	.	2d	-tir,
4F	.	.	.	.
4E	[2cc	Lei	2r	.
4D	.	.	.	.
=3	=3	=3	=3	=3
2.C	4cc]	.	1r	.
.	8b-y	nel	.	.
.	8a	par-	.	.
.	4g	-tir,	.	.
4BB-y	4g	lei	.	.
=4	=4	=4	=4	=4
4AA	4a	nel	4r	.
4GG	4b-y	tor-	4g	lei
[2FF	2cc	-nar	4a	nel
.	.	.	4b-y	tor-
=5	=5	=5	=5	=5
2FF]	[4a	del	8cc	-nar
.	.	.	8cc	del
.	16a]L	.	2dd	So-
.	16b-y	.	.	.
.	16cc	.	.	.
.	16b-yJ	.	.	.
2EE	2g	So-	.	.
.	.	.	4cc#X	.
=6	=6	=6	=6	=6
2DD	1f#X	-le	1dd	-le
[2D	.	.	.	.
=7	=7	=7	=7	=7
4D]	2r	.	8r	.
.	.	.	8a	Chia-
4C	.	.	8b-yL	.
.	.	.	8ccJ	.
[2BB-y	8r	.	8ddL	.
.	8a	Chia-	8eeJ	.
.	8b-yL	.	8ffL	.
.	8ccJ	.	8eeJ	.
=8	=8	=8	=8	=8
4BB-]	8ddL	.	2ff	.
.	8eeJ	.	.	.
4C	8ffL	.	.	.
.	8eeJ	.	.	.
4D	4ff	.	4f	-ma
4E	8ee	-ma	4g	con
.	8dd	con	.	.
=9	=9	=9	=9	=9
[1F	4cc	vo-	4a	vo-
.	4b-y	-ce	4b-y	-ce
.	2a	stan-	[2cc	stan-
=10	=10	=10	=10	=10
2F]	1d	-ca e	2cc]	.
2G	.	.	2b-y	-ca, e
=11	=11	=11	=11	=11
2C	8e	pre-	4.a	pre-
.	8e	-gra, e	.	.
.	2g	plo-	.	.
.	.	.	8cc	-ga, e
2D	.	.	2a	plo-
.	4f#X	.	.	.
=12	=12	=12	=12	=12
4GG	2g	-ra,	2g	-ra,
2G	.	.	.	.
.	2r	.	8r	.
.	.	.	8dd	Co-
4F#X	.	.	8dd	-me U-
.	.	.	8dd	-si-
=13	=13	=13	=13	=13
4G	2r	.	2dd	-gnuol,
4A	.	.	.	.
[2B-y	8r	.	2r	.
.	8dd	Co-	.	.
.	8dd	-me U-	.	.
.	8dd	-si-	.	.
=14	=14	=14	=14	=14
4B-]	4dd	-gnuol	1r	.
4A	4.ee-X	cui'l	.	.
4G	.	.	.	.
.	8dd	Vil-	.	.
4F	4dd	-lan	.	.
=15	=15	=15	=15	=15
2.E-i	2cc	du-	8r	.
.	.	.	8g	Co-
.	.	.	8g	-me U-
.	.	.	8g	-si-
.	4b-y	-ro,	2g	-gnuol
4E-i	[4b-y	cui'l	.	.
=16	=16	=16	=16	=16
4D	8b-]	.	4r	.
.	8a	Vil-	.	.
4C	4a	-lan	4.ee-X	cui'l
2BB-y	4g	du-	.	.
.	.	.	8dd	Vil-
.	4f	-ro in-	4dd	-lan
=17	=17	=17	=17	=17
2E-X	8gL	-vo-	4.cc	du-
.	8aJ	.	.	.
.	2b-y	.	.	.
.	.	.	8cc	-ro in-
2F	.	.	2cc	-vo-
.	4a	.	.	.
=18	=18	=18	=18	=18
2BB-y	1b-y	-le	1b-y	-le
2B-y	.	.	.	.
=19	=19	=19	=19	=19
2G	4r	.	4r	.
.	4g	Dal	4b-y	Dal
2c	4.e	ni-	4.g	ni-
.	8e	-do i	8g	-do i
=20	=20	=20	=20	=20
2F	4f	fi-	4a	fi-
.	4d	-gli	4f	-gli
2D	4r	.	4r	.
.	4a	non	4a	non
=21	=21	=21	=21	=21
2G	4b-y	pen-	4b-y	pen-
.	4dd	-nu-	4dd	-nu-
[2C	2g	-ti an-	2g	-ti an-
=22	=22	=22	=22	=22
2C]	1a	-co-	1a	-co-
2D	.	.	.	.
=23	=23	=23	=23	=23
4GG	2g	-ra,	2g	-ra,
2G	.	.	.	.
.	2r	.	2r	.
4F#X	.	.	.	.
=24	=24	=24	=24	=24
4G	1r	.	2r	.
4A	.	.	.	.
[2B-y	.	.	8r	.
.	.	.	8dd	Co-
.	.	.	8dd	-me U-
.	.	.	8dd	-si-
=25	=25	=25	=25	=25
4B-]	1r	.	1dd	-gnuol,
4A	.	.	.	.
4G	.	.	.	.
4F	.	.	.	.
=26	=26	=26	=26	=26
2.E-X	8r	.	8r	.
.	8g	Co-	8b-y	<Co-
.	8g	-me U-	8b-y	-me U-
.	8g	-si-	8b-y	-si-
.	2g	-gnuol	4b-y	-gnuol<
4E-i	.	.	[4b-y	cui'l
=27	=27	=27	=27	=27
4D	4r	.	8b-]	.
.	.	.	8a	Vil-
4C	4.ee-X	cui'l	4a	-lan
2BB-y	.	.	4g	du-
.	8dd	Vil-	.	.
.	4dd	-lan	4f	-ro in-
=28	=28	=28	=28	=28
2E-X	4.cc	du-	8gL	-vo-
.	.	.	8aJ	.
.	.	.	2b-y	.
.	8cc	-ro in-	.	.
2F	2cc	-vo-	.	.
.	.	.	4a	.
=29	=29	=29	=29	=29
2BB-y	1b-y	-le	2b-y	-le
2B-y	.	.	2r	.
=30	=30	=30	=30	=30
2G	2r	.	4r	.
.	.	.	4g	Dal
2c	4r	.	4.e	ni-
.	4cc	Dal	.	.
.	.	.	8g	-do i
=31	=31	=31	=31	=31
2F	4.a	ni-	8a	fi-
.	.	.	8b-y	-gli
.	.	.	4cc	non
.	8cc	-do i	.	.
2D	8dd	fi-	4b-y	pen-
.	8ee	-gli	.	.
.	4ff	non	8a	-nu-
.	.	.	8a	-ti,
=32	=32	=32	=32	=32
2G	4ee-X	pen-	2b-y	non
.	2dd	-nu-	.	.
2C	.	.	4a	pen-
.	16ccL	-ti an-	4g	-nu-
.	16b-y	.	.	.
.	16a	.	.	.
.	16gJ	.	.	.
=33	=33	=33	=33	=33
2C	1a	-co-	4e	-ti an-
.	.	.	2g	-co-
2D	.	.	.	.
.	.	.	4f#X	.
=34	=34	=34	=34	=34
1GG	1g	-ra.	1g	-ra.
=35||	=35||	=35||	=35||	=35||
!!LO:TX:a:t=Seconda stanza.
2G	1r	.	2.dd	Che in
[2G	.	.	.	.
.	.	.	8cc	mi-
.	.	.	8b-y	-se-
=36	=36	=36	=36	=36
4G]	1r	.	4b-y	-ra-
4F	.	.	4a	-bil
4E	.	.	4g	can-
4D	.	.	8aL	.
.	.	.	8b-yJ	.
=37	=37	=37	=37	=37
2.C	2r	.	8ccL	.
.	.	.	8ddJ	.
.	.	.	8eeL	.
.	.	.	8ffJ	.
.	[2cc	Che in	8ggL	.
.	.	.	8gJ	.
4BB-y	.	.	8aL	.
.	.	.	8b-yJ	.
=38	=38	=38	=38	=38
4AA	4cc]	.	4cc	.
4GG	8b-y	mi-	8ddL	.
.	8a	-se-	8eeJ	.
[2FF	4a	-ra-	[2ff	.
.	4g	-bil	.	.
=39	=39	=39	=39	=39
2FF]	4.f	can-	8ff]	.
.	.	.	8cc	-to, af-
.	.	.	4.dd	-flit-
.	8d	-to, af-	.	.
2EE	8e	-flit-	.	.
.	8f	-te e	8cc#i	-te e
.	[4g	so-	4cc#X	so-
=40	=40	=40	=40	=40
2DD	2g]	.	1a	-le
[2D	2f#X	-le	.	.
=41	=41	=41	=41	=41
4D]	1r	.	4r	.
4C	.	.	4.ee-X	Pian-
[2BB-y	.	.	.	.
.	.	.	8dd	-ge
.	.	.	4dd	le
=42	=42	=42	=42	=42
4BB-]	4r	.	4dd	not-
4C	4.ee-X	Pian-	4cc	-ti, e
4D	.	.	[2b-y	n'em-
.	8dd	-ge	.	.
4E	4dd	le	.	.
=43	=43	=43	=43	=43
[1F	4dd	not-	4b-]	.
.	4cc	-ti, e	4a	-pie i
.	4.cc	n'em-	8aL	bo-
.	.	.	8b-yJ	.
.	.	.	8aL	.
.	8b-y	.	8b-yJ	.
=44	=44	=44	=44	=44
2F]	8aL	.	4cc	.
.	8gJ	.	.	.
.	8fL	.	8b-yL	.
.	8eJ	.	8aJ	.
2G	4d	.	8b-yL	.
.	.	.	8aJ	.
.	4g	-pie i	8b-yL	.
.	.	.	8gJ	.
=45	=45	=45	=45	=45
2C	8e	bo-	4.a	.
.	8f	-schi e	.	.
.	2g	l'ho-	.	.
.	.	.	8a	-schi, e
2D	.	.	2a	l'ho-
.	4f#X	.	.	.
=46	=46	=46	=46	=46
4GG	2g	-ra.	2g	-ra.
2G	.	.	.	.
.	2r	.	2r	.
4F#X	.	.	.	.
=47	=47	=47	=47	=47
4G	2r	.	4r	.
4A	.	.	4f	Al
[2B-y	4r	.	2d	fin
.	4f	Al	.	.
=48	=48	=48	=48	=48
4B-]	4d	fin	4r	.
4A	4f	col	4a	col
4G	4g	no	4b-y	no-
4F	4a	vo	4cc	-vo
=49	=49	=49	=49	=49
2.E-X	2b-y	dì	4ee-X	dì
.	.	.	4ee-i	rin-
.	4r	.	4.b-y	-chui-
4E-i	4b-y	rin-	.	.
.	.	.	8cc	-de al-
=50	=50	=50	=50	=50
4D	4f	-chiu-	2dd	-quan-
4C	4g	-de al-	.	.
2BB-y	8b-yL	-quan-	4dd	-to,
.	8ccJ	.	.	.
.	8ddL	.	4b-y	rin-
.	8b-yJ	.	.	.
=51	=51	=51	=51	=51
2E-X	1cc	.	8g	-chiu-
.	.	.	8a	-de al-
.	.	.	2b-y	-quan-
2F	.	.	.	.
.	.	.	4a	.
=52	=52	=52	=52	=52
2BB-y	2b-y	-to	2b-y	-to
2B-y	2r	.	4r	.
.	.	.	4dd	I
=53	=53	=53	=53	=53
2G	4r	.	4.b-y	lu-
.	4g	I	.	.
.	.	.	8a	-mi: e'l
2c	4.e	lu-	4g	son-
.	.	.	4g	-no in
.	8d	-mi: e'l	.	.
=54	=54	=54	=54	=54
2F	4c	son-	2cc	lor
.	4c	-no in	.	.
2D	2f	lor	4r	.
.	.	.	8ddL	ser-
.	.	.	8ccJ	.
=55	=55	=55	=55	=55
2G	4r	.	8b-yL	.
.	.	.	8aJ	.
.	8gL	ser-	2g	.
.	8fJ	.	.	.
[2C	8e-XL	.	.	.
.	8dJ	.	.	.
.	4c	.	[4cc	-pe
=56	=56	=56	=56	=56
2C]	8e-X	-pe	4cc]	.
.	8f	fra'l	.	.
.	2g	pian-	4b-y	fra'l
2D	.	.	2a	pian-
.	4f#X	.	.	.
=57	=57	=57	=57	=57
4GG	2g	-to,	2g	-to,
2G	.	.	.	.
.	2r	.	2r	.
4F#X	.	.	.	.
=58	=58	=58	=58	=58
4G	2r	.	4r	.
4A	.	.	4ff	Al
[2B-y	4r	.	[2dd	fin
.	4dd	Al	.	.
=59	=59	=59	=59	=59
4B-]	1b-y	fin,	2dd]	.
4A	.	.	.	.
4G	.	.	2r	.
4F	.	.	.	.
=60	=60	=60	=60	=60
2.E-X	4r	.	4r	.
.	4b-y	Al	4ee-X	col
.	4.g	fin	4.b-y	no-
4E-i	.	.	.	.
.	8a	col	8cc	-vo
=61	=61	=61	=61	=61
4D	4b-y	no-	4dd	dì
4C	4cc	-vo	4ee-X	rin-
2BB-y	4dd	dì	4ff	-chiu-
.	4ff	rin-	4f	-de al-
=62	=62	=62	=62	=62
2E-X	4.ee-X	-chiu-	8gL	-quan-
.	.	.	8aJ	.
.	.	.	2b-y	.
.	8dd	-de al	.	.
2F	2cc	quan-	.	.
.	.	.	4a	.
=63	=63	=63	=63	=63
2BB-y	2b-y	-to	2b-y	-to
2B-y	2r	.	2r	.
=64	=64	=64	=64	=64
2G	4r	.	4r	.
.	4g	I	4b-y	I
2c	4.e	lu-	4.g	lu-
.	8e	-mi: e'l	8g	-mi: e'l
=65	=65	=65	=65	=65
2F	8f	son-	8a	son-
.	8g	-no in	8b-y	-no in
.	4a	lor,	4cc	lor,
2D	4r	.	4r	.
.	4f	<in	4dd	<in
=66	=66	=66	=66	=66
2G	4.d	lor>	4.bnX	lor>
.	8d	.	8bni	.
2C	8e-XL	.	8ccL	.
.	8fJ	.	8ddJ	.
.	8g	.	4ee-X	.
.	8cc	ser-	.	.
=67	=67	=67	=67	=67
2C	8a	-pe	4cc	ser-
.	8g	fra'l	.	.
.	2g	pian-	8b-i	-pe
.	.	.	8a	fra'l
2D	.	.	2a	pian-
.	4f#X	.	.	.
=68	=68	=68	=68	=68
1GGl	1gl	-to.	1gl	-to.
==	==	==	==	==
*-	*-	*-	*-	*-
!!!system-decoration: [*]
!!!RDF**kern: i = editorial accidental
!!!RDF**kern: l = terminal long
!!!ENC: Emiliano Ricciardi
!!!END:
!!!EED: Ricciardi, Emiliano
!!!EEV: 2020/02/09
!!!YEC: Copyright 2018 Emiliano Ricciardi, All Rights Reserved
!!!ONB: Translated from MusicXML on 2020/02/09
!!@@BEGIN:	VERSEDATA
!!@CATALOGNUM:	Tsg12090
!!@LAST_MODIFIED: 2020/07/12
!!@TITLE:		Lei nel partir, lei nel tornar del sole
!!@CANTO:		XII
!!@OTTAVA:	90
!!@MANUSRC:	G-Al, G-Am, G-Au, G-Br<sub>1</sub>, G-Br<sub>2</sub>, G-Cv, G-Es<sub>1</sub>, G-Es<sub>2</sub>, G-Es<sub>3</sub>, G-F, G-Fr, G-Fr<sub>1</sub>, G-Fr<sub>2</sub>, G-Mc, G-Mc<sub>1</sub>, G-Mg, G-Mr, G-Mt, G-N, G-Ol
!!@PRINTSRC:	G-1580CM, G-1581B, G-1581CV, G-1581R, G-1581MR, G-1581P, G-1581V, G-1581V<sub>bis</sub>, G-1582C, G-1582M, G-1582MC, G-1582P, G-1582SC, G-1582SC<sub>bis</sub>, G-1583S, G-1584O, G-1584S, G-1585C, G-1585S, G-1588S, G-1589S, G-1590B, G-1590S, G-1592S, G-1593S, G-1594C, G-1595C, G-1597C, G-1598C, G-1599C, G-1600C, G-1600S, G-1601C, G-1601R, G-1602C, G-1604C, G-1604Cl, G-1604F, G-1604P, G-1606B, G-1606B<sub>bis</sub>, G-1606L, G-1607ZR, G-1608DP, G-1609GC, G-1610M, G-1611S, G-1611V, G-1612P, G-1613M, G-1613P, G-1613V, G-1615P, G-1616M, G-1617P, G-1619B, G-1619V, G-1620M, G-1620S, G-1621R, G-1624I, G-1624MT, G-1625C, G-1625S, G-1625SS, G-1626C, G-1626Co, G-1627M, G-1628T, G-1628Tu, G-1630L, G-1630T, G-1632FT, G-1639CF, G-1642M, G-1643I, G-1644P, G-1644S
!!@@BEGIN:	VERSES
!!@ABOUTIT:
!!@ABOUTEN:
!!@EDITOR:	Angelo Solerti
!!@EDITION_TITLE: Gerusalemme liberata. Poema eroico di Torquato Tasso. Edizione critica sui manoscritti e le prime stampe.
!!@EDITION_LOC:	Florence
!!@EDITION_PUB:	G. Barbera
!!@EDITION_DATE:  1895
!!@EDITION_VOL:
!!@EDITION_PAGE:
!!@TRANSLATOR:	Emiliano Ricciardi and Amyrose McCue Gill
!!@VERSE:
!!	Lei nel partir, lei nel tornar del Sole
!!	Chiama con voce stanca, e prega, e plora;
!!	Come usignuol cui ’l villan duro invole
!!	Dal nido i figli non pennuti ancora;
!!	Che in miserabil canto, afflitte e sole
!!	Piange le notti, e n’empie i boschi, e l’ora.
!!	Alfin col novo dì rinchiude alquanto
!!	I lumi: e ’l sonno in lor serpe fra ’l pianto.
!!@MVERSE_DATE: 20230824
!!@MVERSE:
!!	Lei nel par|tir||, lei nel tor|nar|| del So||le			=a*
!!	Chia||ma con vo||ce stan||ca,_e pre||ga,_e plo||ra;		=b*
!!	Co||me_u|sign|uol|| cui_’l vil|lan|| du||ro_in|vo||le		=a
!!	Dal ni|do_i fi||gli non pen|nu||ti_an|co||ra;			=b
!!	Che_in mi|se|ra||bil can||to,_af|flit||te_e so||le		=a
!!	Pian||ge le not||ti,_e n’em||pie_i bo||schi,_e l’o||ra.		=b
!!	Al|fin|| col no||vo dì rin|chiu||de_al|quan||to			=c*
!!	I lu||mi:_e_’l son||no_in lor ser||pe fra_’l pian||to.		=c
!!@TVERSE:
!!	[For] her during the departure, her during the return of the Sun
!!	He calls with tired voice, and prays, and implores;
!!	Like the nightingale from whom the hard[hearted] peasant steals,
!!	Out of the nest, its young, not yet fledged;
!!	Which in wretched song, suffering and alone,
!!	Weeps the nights, and with it fills the woods, and the air.
!!	At last with the new day he closes somewhat
!!	His eyes: and sleep into them slips among the tears.
!!@@END:		VERSES
!!@OTHER_CRIT_ED:  Torquato Tasso, <i>Gerusalemme liberata</i>, ed. Lanfranco Caretti, 2 vols. (Bari: Laterza, 1967).
!!@ATTRIBUTION_ABOUT:
!!@DATING:	mid-1560s through 1570s
!!@DEDICATEE:	Duke Alfonso II d'Este
!!@COMMENTARY:
!!@@END:		VERSEDATA
!!@@BEGIN: SETTING
!!@CATALOGNUM:	Tsg12090a
!!@CANTO:		XII
!!@OTTAVA:	90
!!@TITLE:	Lei nel partir, lei nel tornar del sole
!!@COMPOSER:	Cifra, Antonio
!!@PARTS:		2 (verses 1-4; 5-8)
!!@PRINCEPSTITLE:	Li diversi scherzi a una, a due, a tre et quattro voci. Libro quarto
!!@PRINCEPSLOC:	Rome
!!@NORMLOC:	Rome
!!@NORMPUB:	Giovanni Battista Robletti
!!@NORMPUBSHORT:	Robletti
!!@PRINCEPSPUB:	Giovanni Battista Robletti
!!@PRINCEPSYEAR:	1615
!!@PRINCEPSRISM:	C 2219
!!@OVOICES:	2+bc
!!@EXTANTVOICES:	2+bc
!!@OMENSURATION:	C
!!@OCLEFS:	C1,C1,F4
!!@OTIME:		
!!@OKEYSIG:	b-
!!@FINAL:		(G)G
!!@TIMPEDITOR:	Ricciardi, Emiliano
!!@REPRINTS:	
!!@@END: SETTING
